www/assets/icons/attach_file.svg

<svg xmlns="http://www.w3.org/2000/svg" width="24" height="24" viewBox="0 0 24 24" fill='currentColor'><path d="M16 6v11.5c0 2.21-1.79 4-4 4s-4-1.79-4-4V5a2.5 2.5 0 0 1 5 0v10.5c0 .55-.45 1-1 1s-1-.45-1-1V6H9.5v9.5a2.5 2.5 0 0 0 5 0V5c0-2.21-1.79-4-4-4s-4 1.79-4 4v12.5c0 3.04 2.46 5.5 5.5 5.5s5.5-2.46 5.5-5.5V6z"/></svg>

<svg width="24" height="24" viewBox="0 0 24 24" xmlns="http://www.w3.org/2000/svg" fill='currentColor'><path d="M16 6V17.5C16 19.71 14.21 21.5 12 21.5C9.79 21.5 8 19.71 8 17.5V5C8 3.62 9.12 2.5 10.5 2.5C11.88 2.5 13 3.62 13 5V15.5C13 16.05 12.55 16.5 12 16.5C11.45 16.5 11 16.05 11 15.5V6H9.5V15.5C9.5 16.88 10.62 18 12 18C13.38 18 14.5 16.88 14.5 15.5V5C14.5 2.79 12.71 1 10.5 1C8.29 1 6.5 2.79 6.5 5V17.5C6.5 20.54 8.96 23 12 23C15.04 23 17.5 20.54 17.5 17.5V6H16Z"/></svg>
